assets/sonr-icons/logout.svg

<svg xmlns="http://www.w3.org/2000/svg" width="24" height="24" fill="none" viewBox="0 0 24 24"><path fill="#000" d="M11 20C11 19.448 11.448 19 12 19H15.2C16.057 19 16.639 18.999 17.089 18.962C17.528 18.926 17.751 18.861 17.908 18.781C18.285 18.589 18.591 18.283 18.782 17.907C18.862 17.75 18.927 17.527 18.963 17.088C19 16.638 19 16.055 19 15.199V8.79902C19 7.94202 18.999 7.36002 18.963 6.91002C18.927 6.47102 18.862 6.24802 18.782 6.09102C18.59 5.71502 18.284 5.40902 17.908 5.21702C17.751 5.13702 17.528 5.07202 17.089 5.03602C16.639 4.99902 16.056 4.99902 15.2 4.99902H12C11.448 4.99902 11 4.55102 11 3.99902C11 3.44702 11.448 2.99902 12 2.99902H15.241C16.046 2.99902 16.71 2.99902 17.252 3.04302C17.814 3.08902 18.33 3.18802 18.816 3.43402C19.568 3.81702 20.18 4.42902 20.564 5.18202C20.811 5.66702 20.91 6.18402 20.955 6.74602C20.999 7.28702 20.999 7.95102 20.999 8.75702V15.239C20.999 16.044 20.999 16.708 20.955 17.25C20.909 17.812 20.81 18.329 20.564 18.815C20.181 19.567 19.569 20.179 18.816 20.563C18.331 20.81 17.814 20.909 17.252 20.954C16.71 20.998 16.047 20.998 15.241 20.998H12C11.448 20.998 11 20.55 11 19.998V20Z"/><path fill="#000" d="M7.70701 14.293C8.09801 14.684 8.09801 15.317 7.70701 15.708C7.31601 16.099 6.68301 16.099 6.29301 15.708L3.29301 12.708C2.90201 12.317 2.90201 11.684 3.29301 11.293L6.29301 8.29301C6.68401 7.90201 7.31701 7.90201 7.70701 8.29301C8.09701 8.68401 8.09801 9.31701 7.70701 9.70801L6.41401 11.001H15C15.552 11.001 16 11.449 16 12.001C16 12.553 15.552 13.001 15 13.001H6.41401L7.70701 14.293Z"/></svg>

<svg xmlns="http://www.w3.org/2000/svg" width="24" height="24" fill="none"><path fill="currentColor" d="M11 20a1 1 0 0 1 1-1h3.2c.857 0 1.439-.001 1.889-.038.439-.036.662-.101.819-.181.377-.192.683-.498.874-.874.08-.157.145-.38.181-.819.037-.45.037-1.033.037-1.889v-6.4c0-.857-.001-1.439-.037-1.889-.036-.439-.101-.662-.181-.819a2 2 0 0 0-.874-.874c-.157-.08-.38-.145-.819-.181-.45-.037-1.033-.037-1.889-.037H12a1 1 0 0 1 0-2h3.241c.805 0 1.469 0 2.011.044.562.046 1.078.145 1.564.391a4 4 0 0 1 1.748 1.748c.247.485.346 1.002.391 1.564.044.541.044 1.205.044 2.011v6.482c0 .805 0 1.469-.044 2.011-.046.562-.145 1.079-.391 1.565a4 4 0 0 1-1.748 1.748c-.485.247-1.002.346-1.564.391-.542.044-1.205.044-2.011.044H12a1 1 0 0 1-1-1z"/><path fill="currentColor" d="M7.707 14.293a1 1 0 1 1-1.414 1.415l-3-3a1 1 0 0 1 0-1.415l3-3a1.001 1.001 0 0 1 1.414 1.415l-1.293 1.293H15a1 1 0 0 1 0 2H6.414z"/></svg>
